svgs/sharp-light/xmarks-lines.svg

<svg xmlns="http://www.w3.org/2000/svg" viewBox="0 0 640 512"><!--! Font Awesome Pro 7.1.0 by @fontawesome - https://fontawesome.com License - https://fontawesome.com/license (Commercial License) Copyright 2025 Fonticons, Inc. --><path fill="currentColor" d="M16 32l-16 0 0 32 640 0 0-32-624 0zm0 416l-16 0 0 32 640 0 0-32-624 0zM35.3 172.7l-11.3-11.3-22.6 22.6 11.3 11.3 60.7 60.7-60.7 60.7-11.3 11.3 22.6 22.6 11.3-11.3 60.7-60.7 60.7 60.7 11.3 11.3 22.6-22.6-11.3-11.3-60.7-60.7 60.7-60.7 11.3-11.3-22.6-22.6-11.3 11.3-60.7 60.7-60.7-60.7zm224 0l-11.3-11.3-22.6 22.6 11.3 11.3 60.7 60.7-60.7 60.7-11.3 11.3 22.6 22.6 11.3-11.3 60.7-60.7 60.7 60.7 11.3 11.3 22.6-22.6-11.3-11.3-60.7-60.7 60.7-60.7 11.3-11.3-22.6-22.6-11.3 11.3-60.7 60.7-60.7-60.7zm224 0l-11.3-11.3-22.6 22.6 11.3 11.3 60.7 60.7-60.7 60.7-11.3 11.3 22.6 22.6 11.3-11.3 60.7-60.7 60.7 60.7 11.3 11.3 22.6-22.6-11.3-11.3-60.7-60.7 60.7-60.7 11.3-11.3-22.6-22.6-11.3 11.3-60.7 60.7-60.7-60.7z"/></svg>

<svg xmlns="http://www.w3.org/2000/svg" viewBox="0 0 640 512"><!--! Font Awesome Pro 6.7.2 by @fontawesome - https://fontawesome.com License - https://fontawesome.com/license (Commercial License) Copyright 2024 Fonticons, Inc. --><path d="M16 32L0 32 0 64l16 0 608 0 16 0 0-32-16 0L16 32zm0 416L0 448l0 32 16 0 608 0 16 0 0-32-16 0L16 448zM35.3 172.7L24 161.4 1.4 184l11.3 11.3L73.4 256 12.7 316.7 1.4 328 24 350.6l11.3-11.3L96 278.6l60.7 60.7L168 350.6 190.6 328l-11.3-11.3L118.6 256l60.7-60.7L190.6 184 168 161.4l-11.3 11.3L96 233.4 35.3 172.7zm224 0L248 161.4 225.4 184l11.3 11.3L297.4 256l-60.7 60.7L225.4 328 248 350.6l11.3-11.3L320 278.6l60.7 60.7L392 350.6 414.6 328l-11.3-11.3L342.6 256l60.7-60.7L414.6 184 392 161.4l-11.3 11.3L320 233.4l-60.7-60.7zm224 0L472 161.4 449.4 184l11.3 11.3L521.4 256l-60.7 60.7L449.4 328 472 350.6l11.3-11.3L544 278.6l60.7 60.7L616 350.6 638.6 328l-11.3-11.3L566.6 256l60.7-60.7L638.6 184 616 161.4l-11.3 11.3L544 233.4l-60.7-60.7z"/></svg>
